X:1
T:Title
%%score { ( 1 3 ) | ( 2 4 ) }
L:1/8
M:3/4
K:Ab
V:1 treble nm="Grand Piano"
V:3 treble 
V:2 bass 
V:4 bass 
V:1
 z2 z2[Q:1/4=94] [A,CE][CEA] | [EAc]3 [Ece] [EBd][EAc] | [EGB] [EBd]3 [G,E][B,EG] | %3
 [DGB]3 [EBd] [EAc][EGB] |[M:2/4] [EAc]4 |[M:1/4] [A,CE][CEA] |[M:3/4] [EAc]3 [Ece] [EBd][EAc] | %7
 [EGB] [EBd]3 [G,E][B,EG] | [DGB]3 [EBd] [EAc][DGB] |[M:2/4] [CEA]4 |[M:1/4] Bc |[M:3/4] d4 z2 | %12
 [Ec]4 Bc | d4 z2 |[M:2/4] [Ece]4 |[M:1/4] [A,CE][CEA] |[M:3/4] [EAc]3 [Ece] [EBd][EAc] | %17
 [EGB] [EBd]3 [G,E][B,EG] | [DGB]3 [EBd] [EAc][DGB] |[M:2/4] [CEA]4 |] %20
V:2
 z2 z2 A,,A,, | A,3 A, A,A, | E, E,3 E,E, | E,3 E, E,E, |[M:2/4] A,4 |[M:1/4] A,,A,, | %6
[M:3/4] A,3 A, A,A, | E, E,3 D,E, | E,3 E, E,E, |[M:2/4] A,,4 |[M:1/4] G,A, |[M:3/4] B,4 z2 | %12
 [A,,A,]4 G,A, | B,4 z2 |[M:2/4] A,,4 |[M:1/4] A,,A,, |[M:3/4] A,3 A, A,A, | E, E,3 E,E, | %18
 E,3 E, E,E, |[M:2/4] A,,4 |] %20
V:3
 x6 | x6 | x6 | x6 |[M:2/4] x4 |[M:1/4] x2 |[M:3/4] x6 | x6 | x6 |[M:2/4] x4 |[M:1/4] x2 | %11
[M:3/4] GG GE [EA][EB] | x6 | GG G[EGB] [EAc][EBd] |[M:2/4] x4 |[M:1/4] x2 |[M:3/4] x6 | x6 | x6 | %19
[M:2/4] x4 |] %20
V:4
 x6 | x6 | x6 | x6 |[M:2/4] x4 |[M:1/4] x2 |[M:3/4] x6 | x6 | x6 |[M:2/4] x4 |[M:1/4] x2 | %11
[M:3/4] E,E, E,[D,G,] [C,A,][B,,G,] | x6 | E,E, E,D, C,B,, |[M:2/4] x4 |[M:1/4] x2 |[M:3/4] x6 | %17
 x6 | x6 |[M:2/4] x4 |] %20

